X:1
T:Locar sopra l'abbissi
T:Locar sopra gli abbissi
T:Giovanni Pietro Biandra
T:Source : Madrigaletti a 1, 2 e 3 voci. Libro primo---Venezia---B.Magni (Gardano)---1626. Editor : André Vierendeels (07/03/15).
T:Prima parte
T:Notes : Original clefs : F3, F5 Editorial accidentals above the staff 
C:Giovanni Pietro Biandra
%%score 1 2
L:1/8
Q:1/4=80
M:4/4
K:C
V:1 treble-8 nm="Baritone" snm="Bar"
V:2 bass nm="BC" snm="BC"
V:1
 z2 E2 EF EF/G/ | A4- AGGF | E/F/G/E/ F/D/E/D/ E/C/D/B,/ CC | z EFG AG A/G/A/B/ | %4
w: Lo- car _ _ _ _|_ _ so- pra gli'ab-|bis- * * * * * * * * * * * * si|i fon- da- men- * * * * *|
 c/B/B/A/4B/4 c/B/B/A/4G/4 A/G/G/F/4G/4 A/G/G/F/4E/4 | FE/D/ C/B,/A,/G,/ F,G, A,/G,/A,/F,/ | %6
w: ||
 G,4 z2 C2 | C2 D2 E/F/D/E/ C/D/B,/C/ | A,/B,/C/D/ E/F/G/E/ A/B/G/A/ F/G/E/F/ | D2 D2 z FFF | %10
w: ti dell'|am- pia ter- * * * * * * *||* ra e qua- si'un|
 F3 E A/E/F/G/ A/G/G/F/4G/4 | A/G/A/B/ c/B/B/A/4B/4 c/B/c/d/ e/d/d/c/4d/4 | e2 ed dccB | %13
w: pic- ciol ve- * * * * * * * *||lo l'a- ria spie- gar con le|
 BAA^G G2 G2 | z2 AB c2 cB | d4 e/d/c/B/ A/G/F/E/ | D/E/F/G/ A/B/c/A/ _B/A/B/F/ G/D/E/F/ | %17
w: tu- e man e'l Cie- lo|e le Stel- le for-|mar chiar' _ _ _ _ _ _ _|_ _ _ _ _ _ _ _ _ _ _ _ _ _ _ _|
 G/A/_B/c/ d4 DD | E4 D4 | z2 D3 E/F/ G2- | GA/B/ c4 _BA | _B/A/G/A/ B/A/B/G/ A/B/G/A/ F/G/E/F/ | %22
w: * * * * * e lu|cen- ti,|chiar' _ _ _|_ _ _ _ e lu-|cen- * * * * * * * * * * * * * * *|
 D/E/F/G/ A/B/c/A/ d4- | d2 d/e/c/d/ B4 | A4 A2 G2 | F/E/D/E/ F/G/A/E/ F/C/D/E/ F/E/F/G/ | E8 || %27
w: ||ti, e lu-|cen- * * * * * * * * * * * * * * *|ti.|
 z2 A2 F2 D2 | d/A/B/c/ d/A/F/G/ A/F/D/E/ F/C/D/E/ | %29
w: Dar leg- ge'a'i|ma- * * * * * * * * * * * * * * *|
 F/E/E/D/4E/4 F/G/4A/4G/F/4G/4 A/G/G/F/4G/4 A/B/4c/4B/A/4B/4 | cB/A/ G/F/E/D/ C2 C2 | %31
w: |* * * * * * * * ri|
 z cAF c/_B/A/B/ c/A/B/G/ | A/G/F/G/ A/F/G/E/ F/C/D/E/ F/E/E/D/ | E/F/G/F/ E/D/E/C/ D2 E2 | %34
w: à le tem- pe- * * * * * * *||* * * * * * * * ste à'i|
 F/E/D/E/ F/G/A/B/ c/A/B/c/ d/A/B/c/ | d/e/c/d/ B/c/A/B/ G/A/F/G/ E/F/D/E/ | %36
w: ven- * * * * * * * * * * * * * * *||
 F/E/F/G/ A/G/A/F/ ^GA G/A/^F/G/ | A8 | B2 ^GG G3 G | ABcA B2 B2 | z2 E2 FEED | EFGF E4 | %42
w: |ti,|l'hu- mi- do'u- nir co'l|suo con- tra- rio'el ge- lo|con som- ma pro- vi-|den- za'e- ter- no ze-|
 D4 z2 G2- | GE A3 ^F G/F/E/D/ | E2 C3 A, D2- | DB, E/D/C/B,/ C2 c2- | c2 BB A/B/c/A/ d/c/B/A/ | %47
w: lo, e|_ cre- ar e nu- * * *|trir, e cre- ar|_ e nu- * * * trir tut-|* t'i vi- ven- * * * * * * *|
 ^G/E/^F/G/ A/G/A/F/ GA- A/4G/4A/4G/4A/4G/4F/4G/4 | A4 z2 d2- | d2 cB c/d/e/B/ c/G/A/B/ | %50
w: |ti, tut-|* t'i vi- ven- * * * * * * *|
 c/B/B/A/4B/4 c/B/B/A/4G/4 AG/F/ E/D/C/B,/ | A,2 B,2 CB, CD | B,8 || %53
w: ||ti.|
"^Terza & ultima parte" z2 A,2 A3 c | FFFF F3 E | G>A G/F/E/D/ E/C/D/E/ F/G/A/B/ | %56
w: Si- gnor fu|po- co'al- la tua gran pos-|san- * * * * * * * * * * * * *|
 c4- cB/A/ G/F/E/D/ | CE/D/ CD/C/ B,/A,/B,/C/ D/C/D/B,/ | C4 z EEE | E3 E EE E2- | %60
w: ||za ma che tu|Dio tu cre- a- tor|
 E2 F/D/E/F/ G2 G2 | z2 GA _B2 AG | AFED E2 E2 | z2 A2 cBBA | AGGF E2 EG | G2 ^F2 G2 DE | %66
w: vo- * * * * le- si|ne- scer huo- m'e mo-|rir per chi t'of- fe- se,|co- tan- to l'o- pra|de sei gior- ni'a- van- za ch'io|dir nol so nol' san|
"^-natural" F2 ED E2 E2 | z2 c4 cc | d3 A B4 | z2 E2 FE FG | EF GE FC DE | %71
w: gl'An- gli is- tes- si,|di- ca- lo'il|ver- bo tuo|che sol- * * *|l'in- * * * te- * * *|
 F/E/D/E/ F/G/A/B/4c/4 d2 D/E/F/4E/4F/4D/4 | E8 |] %73
w: |se.|
V:2
 A,,4 A,,2 G,,2 | F,,2 E,,2 D,,4 | C,,8 | A,,4 A,,2 G,,2 | F,,8 | F,,8 | C,,8 | C,2 B,,2 A,,4 | %8
 A,,8 | _B,,8 | C,4 F,,4 | F,,8 | E,,8 | E,,4 E,,4 | F,,4 F,,2 E,,2 | D,,4 A,,4 | _B,,2 A,,2 G,,4 | %17
 G,,4 _B,,4 | A,,4 D,,4 | G,,4 F,,2 E,,2 | D,,2 C,,2 F,,4 | G,,2 F,,2 D,,4- | D,,4 D,,4 | E,,8 | %24
 A,,2 B,,2 ^C,4 | D,4 D,,4 | A,,8 || D,,8 | D,,8 | D,,4 D,,4 | C,,8 | F,,8 | F,,8 |"^#" C,,4 G,,4 | %34
 D,,4 D,,4 | D,,8 | D,,4 E,,4 | A,,8 | E,,8 | F,,4 E,,4 | ^C,4 D,4 | C,2 G,,2 A,,4 | D,,4 G,,4 | %43
 C,3 A,, D,2 B,,2 | C,4 F,,3 D,, | G,,2 C,,2 F,,4 | G,,4 D,,4 | E,,4 E,,4 | A,,4 D,,4- | %49
 D,,4 A,,4 | A,,8 | A,,8 | E,,8 || A,,4 F,,4 | F,,8 | C,,8 | C,,8 | C,,4 G,,4 | C,,4 A,,4 | A,,8- | %60
 A,,2 D,2 C,4 | C,4 G,,4 | C,,4 A,,4 | F,,4 F,,2 G,,2 | A,,2 B,,2 C,4 | D,4 G,,4 | D,,4 A,,4 | %67
 F,,4 E,,4 | F,,4 E,,4 | A,,4 D,4 | ^C,4 D,4 | D,,8 | A,,8 |] %73

